X: 1
T: the Singing Strathspey
C: Adam Allardyce
B: Originally Ours p.184
R: strathspey
Z: 2019 John Chambers <jc:trillian.mit.edu>
M: C
L: 1/8
K: A
E |\
"A"C<E E>F A>B c>e | "F#m"a<a "C#m"g>e "D"f>d "A"e>c |\
"E7"E<B B>c d>e f>g | "F#m"(3agf "C#m"(3gfe "D"(3fed "E7"edB |
"A"C<E E>F A>B c>e | "F#m"a<a "C#m"g>e "D"f>d "A"e>c |\
"Bm"(3dcd "E7"(3Bcd "A"(3cBc "F#m"(3ABc | "E7"(3efe (3dcB "A"c<A A |]
e |\
"A"c>A e>A c>A e2 | "Bm"d>B f>B "E7"d>B f2 |\
"A"c>A e>A c>A e2 | "Bm"(3def "E7"(3edB "A"c<A A>d |
"A"c>A e>A c>A e2 | "Bm"d>B f>B "E7"d>B f2 |\
"A"(3efg "F#m"(3agf "C#m"(3gfe "D"(3fed | "E7"(3edc (3Bcd "A"c<A A |]
